X: 11738
T: Eleanor Of Usan
R: reel
M: 4/4
K: Dmajor
A,DE"D"|:F4FA,DE|"Bm"F2"A"E4"D"FA|"G"B2"A"A2"D"FE"E7"D2|
"A"E4EA,DE|"D" F4FA,DE|"Bm" F2"A"E4"D"FA|
"G"B2Ad"A"F2E2|1 "D"D4A,DE:|2 "D"D4DABc||
"Bm"d4ddcA|"G"c2B2"A"A3F|"D"A2F2"Em"FED2|"A"E4EABc|
"Bm"d4ddcA|"G"c2B2"D"A3A,|"Em"B,E3"E7"E3D|"A"E4 EA,DE|
"D"F4FA,DE|"Bm"F2"A"E4"D"FA|"G"B2"A"A2 "D"FE"E7"D2|
"A"E4EA,DE|"D"F4FA,DE|"Bm"F2"A"E4"D"FA|"G"B2Ad"A"F2E2|"D"D8|

